dist/svgs/unicons/line/film.svg

<svg xmlns="http://www.w3.org/2000/svg" viewBox="0 0 24 24"><path d="M21 2a1 1 0 00-1 1v2h-2V3a1 1 0 00-2 0v1H8V3a1 1 0 00-2 0v2H4V3a1 1 0 00-2 0v18a1 1 0 002 0v-2h2v2a1 1 0 002 0v-1h8v1a1 1 0 002 0v-2h2v2a1 1 0 002 0V3a1 1 0 00-1-1zM6 17H4v-2h2zm0-4H4v-2h2zm0-4H4V7h2zm10 9H8v-5h8zm0-7H8V6h8zm4 6h-2v-2h2zm0-4h-2v-2h2zm0-4h-2V7h2z"/></svg>

<svg xmlns="http://www.w3.org/2000/svg" viewBox="0 0 24 24"><path d="M21,2a1,1,0,0,0-1,1V5H18V3a1,1,0,0,0-2,0V4H8V3A1,1,0,0,0,6,3V5H4V3A1,1,0,0,0,2,3V21a1,1,0,0,0,2,0V19H6v2a1,1,0,0,0,2,0V20h8v1a1,1,0,0,0,2,0V19h2v2a1,1,0,0,0,2,0V3A1,1,0,0,0,21,2ZM6,17H4V15H6Zm0-4H4V11H6ZM6,9H4V7H6Zm10,9H8V13h8Zm0-7H8V6h8Zm4,6H18V15h2Zm0-4H18V11h2Zm0-4H18V7h2Z"/></svg>
